**harm	**harte	**timestamp	**phrase	**leadinstrument	**kern
*M4/4	*M4/4	*	*	*	*
*B-:	*B-:	*	*	*	*B-:
1r;	N	0	.	r	1r;
=1	=1	=1	=1	=1	=1
*>A_intro	*>A_intro	*>A_intro	*>A_intro	*>A_intro	*>A_intro
1ii7	C:min11	0.279	newline	piano	1C 1e- 1g 1b-
=2	=2	=2	=2	=2	=2
2V	F:maj	3.868	.	piano	2F 2a 2cc
4V	F:sus4	5.663	.	piano	4F 4a 4cc
4V	F:maj	6.561	.	piano	4F 4a 4cc
=3	=3	=3	=3	=3	=3
1ii7	C:min11	7.458	.	piano	1C 1e- 1g 1b-
=4	=4	=4	=4	=4	=4
2V	F:maj	11.048	.	piano	2F 2a 2cc
4V	F:sus4	12.843	.	piano	4F 4a 4cc
4V	F:maj	13.741	.	piano	4F 4a 4cc
=5	=5	=5	=5	=5	=5
*>B_verse	*>B_verse	*>B_verse	*>B_verse	*>B_verse	*>B_verse
2I	B-:maj	14.638	newline	voice	2B- 2dd 2ff
2Vf	F:maj/4	16.381	.	voice	2F 2a 2cc
=6	=6	=6	=6	=6	=6
2ii7	C:min7	18.123	.	voice	2C 2e- 2g 2b-
2V	F:sus4(b7,9)	19.866	.	voice	2F 2a 2cc
=7	=7	=7	=7	=7	=7
2I	B-:maj	21.608	.	voice	2B- 2dd 2ff
2Vf	F:maj/4	23.351	.	voice	2F 2a 2cc
=8	=8	=8	=8	=8	=8
2ii7	C:min7	25.093	.	voice	2C 2e- 2g 2b-
2V	F:sus4(b7,9)	26.836	.	voice	2F 2a 2cc
=9	=9	=9	=9	=9	=9
2I	B-:maj	28.578	newline	voice	2B- 2dd 2ff
2iii7	D:min7	30.336	.	voice	2D 2f 2a 2cc
=10	=10	=10	=10	=10	=10
2IV	E-:maj	32.095	.	voice	2E- 2g 2b-
2iii7	D:min7	33.853	.	voice	2D 2f 2a 2cc
=11	=11	=11	=11	=11	=11
2I	B-:maj	35.611	.	voice	2B- 2dd 2ff
2Vf	F:maj/4	37.369	.	voice	2F 2a 2cc
=12	=12	=12	=12	=12	=12
1V	F:sus4(b7,9)	39.128	.	voice	1F 1a 1cc
=13	=13	=13	=13	=13	=13
*M2/4	*M2/4	*M2/4	*M2/4	*M2/4	*M2/4
2V	F:sus4(b7,9)	42.644	.	voice	2F 2a 2cc
=14	=14	=14	=14	=14	=14
*>C_chorus	*>C_chorus	*>C_chorus	*>C_chorus	*>C_chorus	*>C_chorus
*M4/4	*M4/4	*M4/4	*M4/4	*M4/4	*M4/4
2I	B-:maj	44.402	newline	voice	2B- 2dd 2ff
2Vf	F:maj/4	46.13	.	voice	2F 2a 2cc
=15	=15	=15	=15	=15	=15
2ii7	C:min7	47.857	.	voice	2C 2e- 2g 2b-
2V	F:sus4(b7,9)	49.584	.	voice	2F 2a 2cc
=16	=16	=16	=16	=16	=16
2I	B-:maj	51.312	.	voice	2B- 2dd 2ff
2Vf	F:maj/4	53.039	.	voice	2F 2a 2cc
=17	=17	=17	=17	=17	=17
2ii7	C:min7	54.766	.	voice	2C 2e- 2g 2b-
2V	F:sus4(b7,9)	56.494	.	voice	2F 2a 2cc
=18	=18	=18	=18	=18	=18
2I	B-:maj	58.221	newline	voice	2B- 2dd 2ff
2Vf	F:maj/4	59.78	.	voice	2F 2a 2cc
=19	=19	=19	=19	=19	=19
2ii7	C:min7	61.338	.	voice	2C 2e- 2g 2b-
2V	F:sus4(b7,9)	62.897	.	voice	2F 2a 2cc
=20	=20	=20	=20	=20	=20
2I	B-:maj	64.456	.	voice	2B- 2dd 2ff
2Vf	F:maj/4	66.015	.	voice	2F 2a 2cc
=21	=21	=21	=21	=21	=21
1V	F:sus4(b7,9)	67.573	.	voice	1F 1a 1cc
=22	=22	=22	=22	=22	=22
1V	F:sus4(b7,9)	70.691	.	voice	1F 1a 1cc
=23	=23	=23	=23	=23	=23
*>B2_interlude	*>B2_interlude	*>B2_interlude	*>B2_interlude	*>B2_interlude	*>B2_interlude
2I	B-:maj	73.808	newline	piano	2B- 2dd 2ff
2Vf	F:maj/4	75.585	.	piano	2F 2a 2cc
=24	=24	=24	=24	=24	=24
2ii7	C:min7	77.362	.	piano	2C 2e- 2g 2b-
2V	F:sus4(b7,9)	79.14	.	piano	2F 2a 2cc
=25	=25	=25	=25	=25	=25
*>B_verse	*>B_verse	*>B_verse	*>B_verse	*>B_verse	*>B_verse
2I	B-:maj	80.917	newline	voice	2B- 2dd 2ff
2Vf	F:maj/4	82.662	.	voice	2F 2a 2cc
=26	=26	=26	=26	=26	=26
2ii7	C:min7	84.408	.	voice	2C 2e- 2g 2b-
2V	F:sus4(b7,9)	86.154	.	voice	2F 2a 2cc
=27	=27	=27	=27	=27	=27
2I	B-:maj	87.899	.	voice	2B- 2dd 2ff
2Vf	F:maj/4	89.645	.	voice	2F 2a 2cc
=28	=28	=28	=28	=28	=28
2ii7	C:min7	91.391	.	voice	2C 2e- 2g 2b-
2V	F:sus4(b7,9)	93.137	.	voice	2F 2a 2cc
=29	=29	=29	=29	=29	=29
2I	B-:maj	94.882	newline	voice	2B- 2dd 2ff
2iii7	D:min7	96.609	.	voice	2D 2f 2a 2cc
=30	=30	=30	=30	=30	=30
2IV	E-:maj	98.336	.	voice	2E- 2g 2b-
2iii7	D:min7	100.063	.	voice	2D 2f 2a 2cc
=31	=31	=31	=31	=31	=31
2I	B-:maj	101.789	.	voice	2B- 2dd 2ff
2Vf	F:maj/4	103.516	.	voice	2F 2a 2cc
=32	=32	=32	=32	=32	=32
1V	F:sus4(b7,9)	105.243	.	voice	1F 1a 1cc
=33	=33	=33	=33	=33	=33
*M2/4	*M2/4	*M2/4	*M2/4	*M2/4	*M2/4
2V	F:sus4(b7,9)	108.697	.	voice	2F 2a 2cc
=34	=34	=34	=34	=34	=34
*>C_chorus	*>C_chorus	*>C_chorus	*>C_chorus	*>C_chorus	*>C_chorus
*M4/4	*M4/4	*M4/4	*M4/4	*M4/4	*M4/4
2I	B-:maj	110.423	newline	voice	2B- 2dd 2ff
2Vf	F:maj/4	112.181	.	voice	2F 2a 2cc
=35	=35	=35	=35	=35	=35
2ii7	C:min7	113.938	.	voice	2C 2e- 2g 2b-
2V	F:sus4(b7,9)	115.695	.	voice	2F 2a 2cc
=36	=36	=36	=36	=36	=36
2I	B-:maj	117.452	.	voice	2B- 2dd 2ff
2Vf	F:maj/4	119.209	.	voice	2F 2a 2cc
=37	=37	=37	=37	=37	=37
2ii7	C:min7	120.967	.	voice	2C 2e- 2g 2b-
2V	F:sus4(b7,9)	122.724	.	voice	2F 2a 2cc
=38	=38	=38	=38	=38	=38
2I	B-:maj	124.481	newline	voice	2B- 2dd 2ff
2Vf	F:maj/4	126.24	.	voice	2F 2a 2cc
=39	=39	=39	=39	=39	=39
2ii7	C:min7	128	.	voice	2C 2e- 2g 2b-
2iii7	D:min7	129.76	.	voice	2D 2f 2a 2cc
=40	=40	=40	=40	=40	=40
1V	F:sus4(b7,9)	131.519	.	voice	1F 1a 1cc
=41	=41	=41	=41	=41	=41
*>D_bridge	*>D_bridge	*>D_bridge	*>D_bridge	*>D_bridge	*>D_bridge
1V	F:sus4(b7,9)	135.038	newline	voice	1F 1a 1cc
=42	=42	=42	=42	=42	=42
1V	F:sus4(b7,9)	138.497	.	voice	1F 1a 1cc
=43	=43	=43	=43	=43	=43
1V	F:sus4(b7,9)	141.956	.	voice	1F 1a 1cc
=44	=44	=44	=44	=44	=44
2.V	F:sus4(b7,9)	145.414	.	voice	2F 2a 2cc
4III7b	D:7/3	148.008	.	voice	4d 4F# 4a 4cc
=45	=45	=45	=45	=45	=45
2vi7	G:min7	148.873	newline	voice	2G 2b- 2dd 2ff
2V	F:maj(9)	150.6	.	voice	2F 2a 2cc
=46	=46	=46	=46	=46	=46
2IV	E-:maj	152.326	.	voice	2E- 2g 2b-
2V	F:sus2	154.053	.	voice	2F 2a 2cc
=47	=47	=47	=47	=47	=47
2vi7	G:min7	155.779	.	voice	2G 2b- 2dd 2ff
2V	F:maj(9)	157.506	.	voice	2F 2a 2cc
=48	=48	=48	=48	=48	=48
1IV	E-:maj	159.232	.	voice	1E- 1g 1b-
=49	=49	=49	=49	=49	=49
1II7b	C:7/3	162.686	.	voice	1c 1E 1g 1b-
=50	=50	=50	=50	=50	=50
1V	F:sus4(9)	166.139	newline	voice	1F 1a 1cc
=51	=51	=51	=51	=51	=51
1V	F:maj	169.649	.	voice	1F 1a 1cc
=52	=52	=52	=52	=52	=52
*>C_chorus	*>C_chorus	*>C_chorus	*>C_chorus	*>C_chorus	*>C_chorus
2I	B-:maj	173.159	newline	voice	2B- 2dd 2ff
2Vf	F:maj/4	174.927	.	voice	2F 2a 2cc
=53	=53	=53	=53	=53	=53
2ii7	C:min7	176.695	.	voice	2C 2e- 2g 2b-
2V	F:sus4(b7,9)	178.463	.	voice	2F 2a 2cc
=54	=54	=54	=54	=54	=54
2I	B-:maj	180.231	.	voice	2B- 2dd 2ff
2Vf	F:maj/4	181.999	.	voice	2F 2a 2cc
=55	=55	=55	=55	=55	=55
2ii7	C:min7	183.768	.	voice	2C 2e- 2g 2b-
2V	F:sus4(b7,9)	185.536	.	voice	2F 2a 2cc
=56	=56	=56	=56	=56	=56
2I	B-:maj	187.304	newline	voice	2B- 2dd 2ff
2Vf	F:maj/4	188.888	.	voice	2F 2a 2cc
=57	=57	=57	=57	=57	=57
2ii7	C:min7	190.472	.	voice	2C 2e- 2g 2b-
2V	F:sus4(b7,9)	192.056	.	voice	2F 2a 2cc
=58	=58	=58	=58	=58	=58
2I	B-:maj	193.64	.	voice	2B- 2dd 2ff
2Vf	F:maj/4	195.224	.	voice	2F 2a 2cc
=59	=59	=59	=59	=59	=59
2ii7	C:min7	196.809	.	voice	2C 2e- 2g 2b-
2V	F:sus4(b7,9)	198.393	.	voice	2F 2a 2cc
=60	=60	=60	=60	=60	=60
1V	F:sus4(b7,9)	199.977	.	voice	1F 1a 1cc
=61	=61	=61	=61	=61	=61
*>B2_verse	*>B2_verse	*>B2_verse	*>B2_verse	*>B2_verse	*>B2_verse
2I	B-:maj	203.145	newline	voice	2B- 2dd 2ff
2Vf	F:maj/4	205.05	.	voice	2F 2a 2cc
=62	=62	=62	=62	=62	=62
2ii7	C:min7	206.955	.	voice	2C 2e- 2g 2b-
2iii7	D:min7	208.86	.	voice	2D 2f 2a 2cc
=63	=63	=63	=63	=63	=63
2I	B-:maj	210.764	.	voice	2B- 2dd 2ff
2Vf	F:maj/4	212.669	.	voice	2F 2a 2cc
=64	=64	=64	=64	=64	=64
2ii7	C:min7	214.574	.	voice	2C 2e- 2g 2b-
2iii7	D:min7	216.479	.	voice	2D 2f 2a 2cc
=65	=65	=65	=65	=65	=65
2IV	E-:maj	218.383	.	voice	2E- 2g 2b-
2V	F:sus4(b7,9)	220.288	.	voice	2F 2a 2cc
=66	=66	=66	=66	=66	=66
1I	B-:maj	222.193	newline	piano	1B- 1dd 1ff
=67	=67	=67	=67	=67	=67
1I	B-:maj	225.997	.	piano	1B- 1dd 1ff
1r;	N	235.032	.	r	1r;
1r;	N	238.237	.	r	1r;
*-	*-	*-	*-	*-	*-
!!!OTL: Starting Over Again
!!!COC: Dolly Parton
!!!BillboardChartDate: 1980/05/17
!!!BillboardPeak: 36
!!!BillboardWeeksOnChart: 10
!!!SampleTargetRank: 37
!!!SampleActualRank: 36
!!!SampleID#: 0944
!!!RDF**harmony: **recip + pitch class of root + harmonic quality
!!!RDF**harte: Chris Harte's syntax, used by MIREX
!!!RDF**phrase: newline = linebreak in original McGill transcription
!!!RDF**timestamp: McGill audio timestamp in seconds
!!!RDF**leadinstrument: original McGill primary instrumentation annotation
!!!RDT: 2017/01/12/
!!!ENC: Nathaniel Condit-Schultz
!!!EST: Awating manual error checking and editing.
